src/assets/img/contact/github.svg

<svg width="64" height="62" viewBox="0 0 64 62" fill="none" xmlns="http://www.w3.org/2000/svg">
<path fill-rule="evenodd" clip-rule="evenodd" d="M32.0221 1C27.932 1.01228 23.8845 1.81802 20.1111 3.37113C16.3376 4.92424 12.9123 7.19426 10.0311 10.0513C7.14989 12.9084 4.86926 16.2964 3.31967 20.0217C1.77008 23.747 0.981931 27.7363 1.00031 31.7616C0.985644 38.1988 3.02492 44.4781 6.83046 49.7136C10.636 54.9491 16.0157 58.8766 22.2107 60.9421C23.7539 61.2483 24.3191 60.2796 24.3191 59.4609C24.3191 58.7484 24.2682 56.336 24.2682 53.761C15.638 55.5922 13.8409 50.0924 13.8409 50.0924C12.4311 46.53 10.3989 45.6113 10.3989 45.6113C7.573 43.7363 10.6021 43.7363 10.6021 43.7363C13.7393 43.9363 15.384 46.8612 15.384 46.8612C18.1464 51.5673 22.6235 50.2486 24.4207 49.4299C24.5574 47.8657 25.2606 46.4018 26.402 45.305C19.4927 44.5925 12.2469 41.9426 12.2469 30.1304C12.2051 27.0839 13.34 24.1354 15.4221 21.8807C15.1109 21.1182 14.0314 17.9558 15.7269 13.7559C15.7269 13.7559 18.3497 12.9434 24.2555 16.8808C26.7843 16.2115 29.3908 15.8691 32.0094 15.8621C34.6304 15.8649 37.2396 16.2074 39.7696 16.8808C45.6755 12.9122 48.2919 13.7559 48.2919 13.7559C49.9874 17.9808 48.9269 21.1432 48.6031 21.8807C50.7037 24.1242 51.8415 27.0803 51.7783 30.1304C51.7783 41.9426 44.5388 44.5425 37.6041 45.305C38.7536 46.2737 39.7379 48.1049 39.7379 50.9986C39.7379 55.1235 39.6871 58.4359 39.6871 59.4484C39.6871 60.2671 40.2523 61.2358 41.7891 60.9296C47.9815 58.864 53.3592 54.9382 57.1644 49.7053C60.9696 44.4725 63.0105 38.1965 62.9995 31.7616C63.0237 27.7384 62.241 23.75 60.6963 20.025C59.1516 16.3 56.8752 12.9116 53.9975 10.054C51.1198 7.19631 47.6974 4.92561 43.9265 3.37196C40.1555 1.81831 36.1101 1.01226 32.0221 1V1Z" stroke="#FFA800" stroke-width="2" stroke-linejoin="round"/>
</svg>

<?xml version="1.0" encoding="utf-8"?>
<!-- Generator: Adobe Illustrator 26.0.1, SVG Export Plug-In . SVG Version: 6.00 Build 0)  -->
<svg version="1.1" id="Layer_1" xmlns="http://www.w3.org/2000/svg" xmlns:xlink="http://www.w3.org/1999/xlink" x="0px" y="0px"
	 viewBox="0 0 64 62" style="enable-background:new 0 0 64 62;" xml:space="preserve">
<style type="text/css">
	.st0{fill:none;stroke:#FFFFFF;stroke-width:2;stroke-linejoin:round;}
</style>
<path class="st0" d="M32,1c-4.1,0-8.1,0.8-11.9,2.4S12.9,7.2,10,10.1s-5.2,6.2-6.7,10S1,27.7,1,31.8c0,6.4,2,12.7,5.8,18
	S16,59,22.2,61c1.5,0.3,2.1-0.7,2.1-1.5c0-0.7-0.1-3.1-0.1-5.7c-8.6,1.8-10.4-3.7-10.4-3.7c-1.4-3.6-3.4-4.5-3.4-4.5
	c-2.8-1.9,0.2-1.9,0.2-1.9c3.1,0.2,4.8,3.1,4.8,3.1c2.8,4.7,7.2,3.4,9,2.6c0.1-1.6,0.8-3,2-4.1c-6.9-0.7-14.2-3.4-14.2-15.2
	c0-3,1.1-6,3.2-8.2c-0.3-0.8-1.4-3.9,0.3-8.1c0,0,2.6-0.8,8.5,3.1c2.5-0.7,5.1-1,7.8-1c2.6,0,5.2,0.3,7.8,1c5.9-4,8.5-3.1,8.5-3.1
	c1.7,4.2,0.6,7.4,0.3,8.1c2.1,2.2,3.2,5.2,3.2,8.2c0,11.8-7.2,14.4-14.2,15.2c1.1,1,2.1,2.8,2.1,5.7c0,4.1-0.1,7.4-0.1,8.4
	c0,0.8,0.6,1.8,2.1,1.5c6.2-2.1,11.6-6,15.4-11.2C61,44.5,63,38.2,63,31.8c0-4-0.8-8-2.3-11.7s-3.8-7.1-6.7-10S47.7,5,43.9,3.4
	C40.2,1.8,36.1,1,32,1L32,1z"/>
</svg>
